X:1
L:1/8
Q:1/4=88
M:6/8
K:Bb
""^Andante"" .B2 .d (f2 g) | b2 b a2 f | b2 b a2 f | (Tg3{fg} f2) (ga) | b2 b (ag).f | 
 .f2 (e d2) .B | .c2 (e d2) B | (Tc3 B2) (g/a/) | b2 b (ag).f | f2 (e d2) .B | .c2 (e d2) c | 
 (B3 B2) :|
